static/asset/donate.svg

<svg xmlns="http://www.w3.org/2000/svg" viewBox="0 0 19.7 20.2"><style></style><g id="圖層_1"><path d="M10.2 17.9c12-6 9.3-14.2 6.1-15.4-3.9-1.5-6.1 1.4-6.1 1.4S8 .9 4.1 2.5c-3.2 1.2-5.9 9.4 6.1 15.4z" fill="#fff"/><path d="M11.4 9.5l-.4-.1V7.5c.6.2.7.7.7.9h1.4c0-.8-.6-2-2.2-2.3v-1h-.4V6h-.8v-.8h-.3v.9c-1.9.3-2.3 1.5-2.3 2.3 0 1.4 1.1 1.8 2.3 2.1v1.9c-.6-.2-.8-.6-.9-1H7.2c0 .8.6 2 2.2 2.3v1h.4v-.9h.8v.9h.4v-.9c.9-.1 2.3-.6 2.3-2.3 0-1-.8-1.8-1.9-2zm-2-.5c-.3-.1-.9-.2-.9-.8 0-.5.4-.7.9-.8V9zm1.2 3.4h-.8v-1.9l.8.2v1.7zm0-3.1c-.3-.1-.6-.2-.8-.2V7.4c.2 0 .5 0 .8.1v1.8zm.4 3.1v-1.6c.6.1.9.3.9.8s-.4.7-.9.8z" fill="#666674"/></g></svg>

<?xml version="1.0" encoding="utf-8"?>
<!-- Generator: Adobe Illustrator 18.0.0, SVG Export Plug-In . SVG Version: 6.00 Build 0)  -->
<!DOCTYPE svg PUBLIC "-//W3C//DTD SVG 1.1//EN" "http://www.w3.org/Graphics/SVG/1.1/DTD/svg11.dtd">
<svg version="1.1" xmlns="http://www.w3.org/2000/svg" xmlns:xlink="http://www.w3.org/1999/xlink" x="0px" y="0px"
	 viewBox="0 0 19.7 20.2" style="enable-background:new 0 0 19.7 20.2;" xml:space="preserve">
<style type="text/css">
	.st0{display:none;}
	.st1{display:inline;}
	.st2{fill:#FFFFFF;}
	.st3{fill:#666674;}
	.st4{fill:none;stroke:#666674;stroke-miterlimit:10;}
	.st5{fill:none;stroke:#666674;stroke-width:3;stroke-miterlimit:10;}
	.st6{opacity:0.35;fill:#666674;}
	.st7{fill:#C3000B;}
	.st8{fill:#E20012;}
	.st9{fill:none;stroke:#666674;stroke-linecap:round;stroke-linejoin:round;stroke-miterlimit:10;}
	.st10{fill:#39AD4A;}
	.st11{fill:#476399;}
	.st12{fill:#41A6DC;}
	.st13{fill:#C6000B;}
	.st14{fill:#231815;}
	.st15{fill:#DAE1E5;}
	.st16{fill:none;stroke:#000000;stroke-miterlimit:10;}
	.st17{fill:none;stroke:#C94223;stroke-miterlimit:10;}
	.st18{fill:#C94223;}
	.st19{fill:#363484;}
	.st20{fill:none;stroke:#FFFFFF;stroke-miterlimit:10;}
</style>
<g id="圖層_2" class="st0">
</g>
<g id="圖層_1">
	<g>
		<g>
			<path class="st2" d="M10.2,17.9c12-6,9.3-14.2,6.1-15.4c-3.9-1.5-6.1,1.4-6.1,1.4s-2.2-3-6.1-1.4C0.9,3.7-1.8,11.9,10.2,17.9z"/>
		</g>
		<path class="st3" d="M11.4,9.5L11,9.4V7.5c0.6,0.2,0.7,0.7,0.7,0.9h1.4c0-0.8-0.6-2-2.2-2.3v-1h-0.4v0.9c-0.3,0-0.6,0-0.8,0V5.2
			H9.4v0.9C7.5,6.4,7.1,7.6,7.1,8.4c0,1.4,1.1,1.8,2.3,2.1v1.9c-0.6-0.2-0.8-0.6-0.9-1H7.2c0,0.8,0.6,2,2.2,2.3v1h0.4v-0.9
			c0.2,0,0.5,0,0.8,0v0.9H11v-0.9c0.9-0.1,2.3-0.6,2.3-2.3C13.3,10.5,12.5,9.7,11.4,9.5z M9.4,9C9.1,8.9,8.5,8.8,8.5,8.2
			c0-0.5,0.4-0.7,0.9-0.8V9z M10.6,12.4c-0.3,0-0.6,0-0.8,0v-1.9l0.8,0.2V12.4z M10.6,9.3C10.3,9.2,10,9.1,9.8,9.1V7.4
			c0.2,0,0.5,0,0.8,0.1V9.3z M11,12.4v-1.6c0.6,0.1,0.9,0.3,0.9,0.8C11.9,12.1,11.5,12.3,11,12.4z"/>
	</g>
</g>
<g id="圖層_3" class="st0">
</g>
</svg>
